X:1
T:Agnus Dei
T:Agnus Dei
%%score [ ( 1 2 ) ( 3 4 ) ( 5 6 ) ( 7 8 ) ]
L:1/8
Q:1/4=98
M:4/4
K:D
V:1 treble nm="S S" snm="S."
V:2 treble 
V:3 treble nm="A" snm="A."
V:4 treble 
V:5 treble-8 transpose=-12 nm="T" snm="T."
V:6 treble-8 transpose=-12 
V:7 bass nm="B B" snm="B."
V:8 bass 
V:1
 F2"^Dynamics a piacre" G2 F2 B2 | B2 ^A4 z2 | z8 | z8 | d2 c2 B2 A2 | G2 F2 !breath!E4 | %6
w: Ky- ri- e e-|lei- son|||Ky- ri- e e-|\-~le- i- son.|
 D4 E2 F2 | G4 (F2 A2) | (d2 c2) B2 A2 | F2 G2 (E2 F2) | (D2 E2) D2 C2 | (D2 E2) !breath!F4 | %12
w: Chri- ste e-|lei- son, _|Chri- * ste e-|le- i- son, _|Chri- * ste e-|le- i- son.|
 F2 G2 F2 B2 | B2 ^A4 z2 | z8 | z4 z2 FE | D2 B2 A3 G | F2 A2 (d2 c2 | B4 A4) | F8 |] %20
w: Ky- ri- e e-|lei- son,||Ky- ri-|e e- le- i-|son, e- le- *|i- i-|son.|
[M:3/4]!f![Q:1/4=72] D3 D E2 |[M:4/4] (FGA)B A4 | (d2 c2)"^Cresc  e  rall" BA^GA | %23
w: Glo- ri- a,|glo- * * ri- a,|glo- ria ria ex- cel- sis|
 (B2 c2)!ff! A4 ||[M:2/4][Q:1/4=112] z2!f! FG ||[M:4/4] A4 B4 |!>(! A3 G!>)! F4 | %27
w: De- * o!|Et in|te- rra,|te- rra pax,|
 B2!>(! A2 G>!>)!G F2 ||[M:3/4]!>(! d3 B G!>)!F |!>(! F2!>)! E2!p! z2 |!mf! d2 c2!mf! B2 | %31
w: pax ho- mi- ni- bus|bo- nae vo- llun-|\-~ta- tis.|Lau- da- mus|
 A2 z2 z2 | dd c>c B2 | A2 z2 z2 |[M:2/4] f3 e | d2 c2 |[M:3/4] B2 z g fe | d4 e2 | !breath!f6 | %39
w: te!|Be- ne- di- ci- mus|te!|A- do-|ra- mus|te! Glo- ri- fi-|ca- mus|te!|
 c3 B c2 | d3 c B2 | (B2 c2) ^A2 | B4 A2 | F4 G2 | A2 B2 G2 | E6 | !breath!D6 || %47
w: Gra- ti- as|a- gi- mus|ti- * bi|pro- pter|ma- gnam|glo- ri- am|tu-|am.|
[K:F]!mf![Q:1/4=96] F2 E2 D2 | B2 A2 G2 | F4 A2 | (d2 e2) d2 |!mp! ^c4 B2 | A2 d2 ^c2 | %53
w: Do- mi- ne|De- * us,|rex coe-|le- * stis|De- us|pa- ter om-|
 (B2 A2) G2 |!p! E6 | (A4 d2 | c4 e2 | d4) F2- | F2 c4 |[M:4/2]!mp! A4 G4 F4 G4 |[M:3/4]!p! (A6 | %61
w: ni- * po-|tens.|Do- *||* mi-|* ne|Je- su Chri- ste|Ag-|
 d6 | G2 A2) d2 | (c2 B2) A2 |!mp! E3 E F2 | (G4 A2) | F2 z2!<(! D2 | F2 E2 D2!<)! | %68
w: |* * nus|De- * i|Fi- li- us|Pa- *|tris Qui|to- llis pe-|
[M:4/4] A!>(!G(FE)!>)! D2 z2 |[M:2/4]!pp! G2 F2 | _E2 D2 | _E4 |[M:3/4]!mp! D4 A2 | %73
w: cca- ta mu- * ndi|mi- se-|re- re|no-|bis Qui|
!<(! G2 d2 G2!<)! |[M:4/4] d!>(!c(BA)!>)! B2 z2 |[M:2/4]!pp! G2 A2 | B2 d2 | (d2 c2) | %78
w: to- llis pe-|cca- ta mu- * ndi|mi- se-|re- re|no- *|
[M:3/4] A4!mf!!<(! D2 | F2 E2!<)! D2 |[M:4/4]!<(! AG(FE)!<)! F2!f! z2 |[M:2/4] (3D2 E2 A2 | G3 c | %83
w: bis, qui|to- llis pe-|cca- ta mu- * ndi|su- sci- pe|de- pre-|
 c2 A2 | G2 F2 | (D2 E2) |[M:3/4] F2 z2!<(! A2 | d3 d!<)! c2 |[M:2/4]!<(! B2 A2 | %89
w: ca- ti-|on- nem|no- *|stram. Qui|se- des ad|de- xtram|
[M:4/4] (F2 G2)!<)! A4 |[M:2/4]"^rall  e  dim" B2 A2 | F2 G2 | E4 | !fermata!^F4 || %94
w: Pa- * tris,|mi- se-|re- re|no-|bis.|
[K:D][M:4/4]!f![Q:1/4=112] D3 E F2 A2 | d2 c2 B2 A2 | B4 A2 G2 | F2 D2 E4 | F4 ^G2 (Ac) | %99
w: Quo- ni- am tu|so- lus sa- nctus,|Tu so- lus|Do- mi- nus.|Tu so- lus a-|
[M:3/4] (ed) (cB) ^A2 |[M:3/2] B4 A4 G4 |[M:4/4]"^sempre"!f! F6 F2 | (B4 A2) F2 | G2 B2 e2 d2 | %104
w: lti- * ssi- * mus|Je- su Chri-|\-~ste, cum|Sa- * ncto|Spi- ri- tu in|
 c2 de"^allargando" d2 c2 | B2 A2 (!breath!F2 G2) | A8- | A8 |][Q:1/4=120]"^Dynamics a piacre" z8 | %109
w: Glo- ri- a De- i|Pa- tris. A- *|men.|men.||
 z8 | z8 ||[Q:1/4=108] F4 E3 D | EF G2 A2 z B | A2 F2 (DE)FG | F2 E2 z2 DF |[M:3/4] B3 A F2 | %116
w: ||Pa- trem o-|mni- po- te- ntem *|cto- rem coe- * li et|te- rrae vi- si-|bi- li- um|
 G3 F DE | B2 G3 E | DC B,2 z2 |[M:2/4] z2 BB | d2 c2 |[M:3/4] B3 B A2 |[M:4/2] d4 c4 B4 A4 | %123
w: o- mni- um et|in- vi- si-|bi- li- um.|Et in|u- num|Do- mi- num|Je- su Chri- ste|
[M:3/4] F3 F G2 | A2 B4 | BA G2 F2 ||[K:C] E2 z2 CD | (E2 G2) F2 | G2 A2 cB | A3 A G2 | C>D E2 z2 | %131
w: Fi- li- um|De- i|u- ni- ge- ni-|tum Et ex|Pa- * tre|na- tum an- te|o- mni- a|sae- cu- la.|
 c2 B2 G2 | A2 G2 z2 | z2 B4 |[M:2/4] c4 | (A2 G2) | E3 F | E2 A2 | ^F4 |[M:3/4] !breath!G6 | %140
w: De- um de|De- o,|De-|\-~um|ve- *|rum de|De- o|ve-|ro.|
 c>c B2 G2 | A2 G2 cB | A3 G EF | E2 D2 GF | E3 E F2 | E2 D4 |"^q  = 94""^poco meno mosso" C6 || %147
w: Ge- ni- tum non|fa- ctum co- nsu~\--|\-~bsta- nti- a- lem|Pa- tri, per quem|o- mni- a|fa- cta|sunt.|
 z6 | z2 z2 E2 | F>F EE EE | A2 B3 A | A2 ^G2 z e | c2 A2 F2 | %153
w: |nos|ho- mi- nes et pro- pter|no- stram sa-|lu- tem de-|scen \-~dit de|
[M:4/4] D2 E4"^meno mosso"[Q:1/4=90] !breath!E2 | E4 E4 | A6 A2 |[M:3/4] G4 G2 |[M:2/4] F>F E2 | %158
w: coe- lis. Et|in- car-|na- tus|est de|Spi- ri- tu|
[M:3/4] D2 C2 EF | G4 A2 | G>E D2 z2 |[M:2/4]"^meno mosso"[Q:1/4=86] z2 F2 | E2 E2 | D2 D2 | E4 | %165
w: Sa- ncto ex Ma-|ri- a|Vir- gi- ne|Et|ho- mo|fa- ctus|est.|
 z4 | E2 E2 | A4 | B4 |[M:3/4] c>B A2 G2 | F2 E2 z2 | z6 | z6 |[M:6/4] E4 D4 C2"^[" B,2 | %174
w: |Cru- ci-|fi-|xus|e- ti- am pro|no- bis|||pa- ssus et se-|
 B,4 B,4"^]"[Q:1/4=100] !fermata!A,4 ||[K:D][M:2/4]"^A Tempo" z F GA | B2 A2 | G2 F2 | %178
w: pu- ltus est.|Et re- su-|rre- xit|te- rtia|
[M:3/4] E2 F2 z F | B2 c3 B |[M:4/4] B2 ^A2 z2 FF | (d2 e2) f2 d2 | g2 f2 z edc | (B2 A2 G2) F2 | %184
w: di- e se-|cu- ndam scri-|ptu- ras. Et a-|sce- * dit in|coe- lum se- det ad|de- * * xtram|
 E4 F2 z =c |[M:3/4] BG E2 A2 | FE D2 D2 | G2 B2 AG | d4 d2 | =c2 B2 A2 | GE F2 EF | G2 GB =cd | %192
w: Pa- tris. Et|i- te- rum ve-|ntu- rus est cum|glo- ria ju- di-|ca- re|vi- vos et|mo- rtu- os: cu- ius|re- gni non e- rit|
 G2 G2 BA | G2 F2 E2 | D4 F2 | GF/F/ GA B=c | A2 D2 d=c | B2 G2 =cB | A2 B3 G | %199
w: fi- nis. Et in|Spi- ri- tum|Sa- nctum|Do- mi- num et vi- vi- fi-|ca- ntem: Qui ex|Pa- tre Fi- li-|o- que pro-|
[M:4/4] E2 D2 z2 dA |[M:3/4] B2 A3 D | GG F2 z2 | B3 c dc | B2 A2 A2 | D3 E FG | F2 E2 AG | %206
w: ce- dit. Qui cum|Pa- tre et|Fi- li- o|si- mul a- do-|ra- tur et|co- nglo- ri- fi-|ca- tur qui lo-|
[M:2/4] F2 G2 | (AB) cd | F2 E2 | z2 A2 | d2 B2 |[M:3/4] A2 F3 D | G>G FE F^G | A>B c3 d | %214
w: cu- tus|est _ per Pro-|phe- tas.|Et|u- nam|sa- nctam ca-|tho- li- cam et a- po-|sto- li- cam e-|
 cB A2 z A | d>B AF DE | F2 F2 FF | Bc d>d cA |[M:2/4] B2 A2 | z2 DE!fine! | F2 G2 | AB cd | %222
w: ccle- si- am. Co~\--|\-~nfi- te- or u- num ba-|pti- sma in re-|mi- ssi- o- nem pe- cca-|to- rum|Et e-|xspe- cto|re- su- rre- cti-|
 B2 A2 | D3 E | F2 F2 | z2 F2 | d2 ef | d2 B2 |[M:4/4] A3 F E2 z2 |[M:2/4] (B4 | c2 d2 | f4 | e4) | %233
w: o- nem|mo- rtu-|or- um|Et|vi- tam ve-|ntu- ri|sae- cu- li|A-||||
 !fermata!d4 |][M:3/4]!mp![Q:1/4=96] F6 | A6 | (d2 c2) B2 | A6 | (d2 c2) B2 | A6 | d2 c2 B2 | %241
w: men.|Sa-|nctus,|sa- * *|nctus,|sa- * *|nctus|Do- mi- nus|
 (A2 F2) B2 | (c2 d2) e2 |!mf! A6 | f2 d2 g2 | f2 d2 e2 | f2 e2 d2 | B4 A2 | d3 d B2 | %249
w: De- * us|Sa- * ba-|oth.|Ple- ni sunt|coe- li, sunt|coe- li et|te- rra|glo- ri- a|
[M:6/4] (D2 E2) F4 z2!f! d2 |[M:3/4] B2 A4 | z6 | z2 z2 z A | B2 c2 de |[M:4/4] f4 e2 gf | %255
w: tu- * a. Ho-|sa- nna||ho-|\-~sa- nna in ex-|cel- sis, in ex-|
[M:5/4] e8- e2 | x10 |][M:4/4]!mf![Q:1/4=96] D4 E4 | F4 A4 | G4 (F2 A2) | (d2 B2) c4 | z8 | z8 | %263
w: cel- *||Be- ne-|di- ctus,|be- ne- *|di- * ctus.|||
!mp! e6 d2 | d4 c2 A2 | (d2"^c   r   e   s   c   e   n   d   o" D2) E2 F2 | G2 AB c2 A2 | %267
w: Be- ne-|di- ctus qui|ve- * nit in|no- mi- ne Do- mi-|
 d4 z2!f! z e |[M:3/4] f2 e2 dc | d2 c2 z"^c   r   e   s   c   e   n   d   o" A | %270
w: ni. Ho~\-|\-~sa- nna in e-|xcel- sis, ho-|
[M:4/4] B2 d2 g2 f2 |[M:6/4] e12 | d12 |] %273
w: sa- nna in e-|xcel-|sis.|
[K:F][M:4/4]!ppp!"^leggerio dolcissimo"[Q:1/4=76] [FA]2 [FA]2 [EG]2 [EG]2 | %274
w: A- gnus De- i,|
 [FA]2 [FA]2 [GB]2 [GB]2 | [FA]2 [FA]2 [FA]2 [EG]2 | [FA]2 [FA]2 [FA]2 [GB]2 | %277
w: a- gnus De- i,|a- gnus, a- gnus,|a- gnus De- i,|
 [FA]2 [Ad]2 [FA]2 [EG]2 | [DF]2 [^CE]2 D4 | E4!pp! z4 | D2 E2 F2 G2 | A4 A4 | %282
w: a- gnus, a- gnus,|a- gnus De-|i.|Mi- se- re- re|no- bis.|
!ppp! [DF]2 [DF]2 [^CF]2 [CE]2 | [FA]2 [DF]2 F2 F2 | F2 G2 A2 A2 | A2 F2 (D2 F2) | E4!pp! z4 | %287
w: A- gnus, a- gnus,|a- gnus De- i,|a- gnus, a- gnus,|a- gnus De- *|i|
 D2 E2 F2 G2 | A4!ppp! A4 | [FA]2 [FA]2 [EB]2 [EB]2 | [FA]2 [FA]2 [FA]2 [EG]2 | %291
w: Mi- se- re- re|no- bis.|A- gnus De- i|do- na no- bis,|
 [FA]2 [Ad]2 [FA]2 [EB]2 | [FA]2 [EG]2 [FA]2 [EG]2 | [DF]2 E2 D4 ||[K:D] C4 z4 | %295
w: a- gnus De- i|do- na no- bis,|do- na no-|\-tbis.|
[M:2/4]!pp!"^poco meno mosso" F2 G2 | A2 B2 | c2 d2 | G2 F2 |[M:6/4] E12 |[M:2/4] !fermata!F4 |] %301
w: Do- na|no- bis|pa- cem,|no- bis|pa-|cem.|
V:2
 F2 E2 F2 (DE) | F2 F4 x2 | x8 | x8 | F2 D2 G2 A2 | x8 | x8 | x8 | x8 | x8 | x8 | x8 | %12
 F2 E2 F2 (DE) | F2 F4 x2 | x8 | x8 | D4- DCDE | (F2 G2 A4) | (B4 A4) | F8 |][M:3/4] x6 | %21
[M:4/4] x8 | A^GBA FEDE | (F2 E2) E4 ||[M:2/4] x2 DE ||[M:4/4] F4 G4 | x8 | x8 ||[M:3/4] x6 | x6 | %30
 x6 | A2 B2 c2 | d2 z2 z2 | AA B>B c2 |[M:2/4] d2 dc | x4 |[M:3/4] x6 | x6 | x6 | x6 | x6 | x6 | %42
 x6 | x6 | x6 | x6 | x6 ||[K:F] x6 | x6 | x6 | x6 | x6 | x6 | x6 | x6 | x6 | x6 | x6 | x6 | %59
[M:4/2] x16 |[M:3/4] x6 | x6 | x6 | x6 | x6 | x6 | x6 | x6 |[M:4/4] x8 |[M:2/4] x4 | x4 | x4 | %72
[M:3/4] x6 | x6 |[M:4/4] BAG^F G2 x2 |[M:2/4] x4 | B2 G2 | G4 |[M:3/4] ^F4 x2 | x6 |[M:4/4] x8 | %81
[M:2/4] x4 | x4 | x4 | x4 | (D2 ^C2) |[M:3/4] D2 x4 | x6 |[M:2/4] x4 |[M:4/4] (F2 E2) F4 | %90
[M:2/4] x4 | x4 | x4 | x4 ||[K:D][M:4/4] x8 | x8 | x8 | x8 | x8 |[M:3/4] x6 |[M:3/2] x12 | %101
[M:4/4] x8 | x8 | x8 | x8 | x8 | A4 F2 E2 | A8 |] x8 | x8 | x8 || x8 | EF G2 E2 E2 | x8 | x8 | %115
[M:3/4] x6 | x6 | x6 | x6 |[M:2/4] x4 | x4 |[M:3/4] x6 |[M:4/2] x16 |[M:3/4] x6 | x6 | x6 || %126
[K:C] x6 | x6 | x6 | x6 | x6 | x6 | x6 | x6 |[M:2/4] x4 | x4 | x4 | x4 | x4 |[M:3/4] x6 | x6 | x6 | %142
 x6 | x6 | x6 | x6 | x6 || x6 | x6 | x6 | x6 | x6 | x6 |[M:4/4] x8 | x8 | x8 |[M:3/4] x6 | %157
[M:2/4] x4 |[M:3/4] x6 | x6 | x6 |[M:2/4] x4 | x4 | x4 | x4 | x4 | x4 | x4 | x4 |[M:3/4] x6 | x6 | %171
 x6 | x6 |[M:6/4] x12 | x12 ||[K:D][M:2/4] x4 | x4 | x4 |[M:3/4] x6 | x6 |[M:4/4] x8 | x8 | x8 | %183
 x8 | x8 |[M:3/4] x6 | x6 | x6 | x6 | x6 | x6 | x6 | x6 | x6 | x6 | x6 | x6 | x6 | x6 |[M:4/4] x8 | %200
[M:3/4] x6 | x6 | x6 | x6 | x6 | x6 |[M:2/4] x4 | x4 | x4 | x4 | x4 |[M:3/4] x6 | x6 | x6 | x6 | %215
 x6 | x6 | x6 |[M:2/4] x4 | x4 | x4 | x4 | x4 | x4 | x4 | x4 | x4 | x4 |[M:4/4] x8 |[M:2/4] x4 | %230
 x4 | x4 | x4 | x4 |][M:3/4] x6 | x6 | x6 | x6 | x6 | x6 | x6 | x6 | x6 | x6 | d2 d2 c2 | %245
 d2 B2 c2 | d2 c2 A2 | x6 | x6 |[M:6/4] x12 |[M:3/4] x6 | x6 | x6 | B2 ^A2 z2 |[M:4/4] x8 | %255
[M:5/4] x10 | d8 x2 |][M:4/4] x8 | x8 | x8 | x8 | x8 | x8 | x8 | x8 | x8 | x8 | x8 |[M:3/4] x6 | %269
 x6 |[M:4/4] x8 |[M:6/4] x12 | x12 |][K:F][M:4/4] x8 | x8 | x8 | x8 | x8 | x8 | x8 | x8 | x8 | x8 | %283
 x8 | x8 | x8 | x8 | x8 | x8 | x8 | x8 | x8 | x8 | x8 ||[K:D] x8 |[M:2/4] x4 | x4 | x4 | x4 | %299
[M:6/4] x12 |[M:2/4] x4 |] %301
V:3
 D2 C2 D2 (B,C) | D2 C4 z2 | B,2 C2 D2 E2 | F2 F4 z2 | D2 F2 (DE) F2 | D6 !breath!C2 | %6
w: Ky- ri- e e- *|lei- son|Ky- ri- e e-|lei- son|Ky- ri- e _ e-|\-~lei- son.|
 (D4 B,C) D2- | D2 E2 (D2 C2) | (D2 A2 G)F E2 | D4 C4 | B,4 B,2 ^A,2 | (B,2 DC D2) !breath!C2 | %12
w: Chri- * * ste|_ e- lei- son,~Chri-|* * * ste e-|lei- son,|Chri- ste e-|lei- * * * son.|
 D2 C2 D2 (B,C) | D2 C4 z2 | B,2 C2 D2 E2 | F2 F4 z2 | B,4- B,CFE | D2 C2 D2 A2 | A2 (GF) E4 | %19
w: Ky- ri- e e- *|lei- son,|Ky- ri- e e-|\-~lei- son,|Ky- * ri- e e-|le- i- son, Ky-|rie e- * lei-|
 ^D8 |][M:3/4]!f! D3 D C2 |[M:4/4] =D3 D C2 DE | D2 E2 EC(B,A, | DC D2)!ff! C4 ||[M:2/4] z4 || %25
w: son.|Glo- ri- a,|glo- ria, glo- ri- a|in ex- cel- sis De- *|* * * o!||
[M:4/4] z2!f! DE E2 E2 | E4 z4 | D!>(!E F2 E>!>)!E D2 ||[M:3/4]!>(! D3 D D!>)!D | %29
w: Et in te- rra|pax,|pax * ho- mi- ni- bus|bo- nae vo- llun-|
!>(! D2!>)! C2!p! z2 |!mf! z6 | D2 F2 G2 | F2 z2 z2 | DD A>A G2 |[M:2/4] F3 z | A4 | %36
w: \-~ta- tis.||Lau- da- mus|te!|Be- ne- di- ci- mus|te!|Glo-|
[M:3/4] G2 B2 G2 | F4 G2 | !breath!F6 | ^A3 ^G A2 | F3 F D2 | G4 F2 | F4 G2 | (D2 E2) D2 | D4 E2 | %45
w: \-~ri- fi- ca-|mus _|te!|Gra- ti- as|a- gi- mus|ti- bi|pro- pter|ma- gnam glo-|riam, glo-|
 D2 C2- B,2 | !breath!A,6 ||[K:F]!p! (D2 E2 D2 | G2 F2 E2 | D4) E2 | (A2 G2 A2) |!mp! A4 G2 | %52
w: riam tu- *|am.|Do- * *||* mi-|ne _ _|De- us|
 F2 G2 A2 | (G2 F2) E2 |!p! C6 | (D4 F2- | F2 E2 G2 | A2 G2) A2- | A2 (G2 F2) | %59
w: pa- ter om-|ni- * po-|tens.|Do- *||* * mi-|* ne _|
[M:4/2]!mp! E6 E2 D4 (D2 E2) |[M:3/4]!p! (F6 | A2 c2 B2 | G2 F2) G2 | (F2 E2) F2 |!mp! ^C4 D2- | %65
w: Je- su Chri- ste _|Ag-||* * nus|De- * i|Fi- lius|
 D2 ^C4 | D2!<(! z2 D2 | ^C4!<)! D2- |[M:4/4] D2!>(! ^C2!>)! D2 z2 |[M:2/4]!pp! D2 C2 | B,2 A,2 | %71
w: _ Pa-|tris pe-|cca- ta|_ mu- ndi|mi- se-|re- re|
 (C2 B,2) |[M:3/4]!mp! A,4 D2 | D2 D2 D2 |[M:4/4] _EE D2 D2 z2 |[M:2/4]!pp! _E2 ^F2 | G2 D2 | %77
w: no- *|bis Qui|to- llis pe-|cca- ta mu- ndi|mi- se-|re- re|
 (D2 C2) |[M:3/4] D4!mf! B,2 | ^C4 D2- |[M:4/4] D2 ^C2 D2!f! z2 |[M:2/4] (3D2 E2 D2 | C3 E | %83
w: no- *|bis, qui|to- llis|_ to- llis|su- sci- pe|de- pre-|
 F2 F2 | E2 D2 | (B,2 A,2) |[M:3/4] D2 z2!<(! E2 | D3 E!<)! F2 |[M:2/4] G2 F2 |[M:4/4] D4 D4 | %90
w: ca- ti-|on- nem|no- *|stram. Qui|se- des ad|de- xtram|Pa- tris,|
[M:2/4] G2 E2 | F2 D2 | (D2 ^C2) | D4 ||[K:D][M:4/4]!f! D3 C D2 E2 | D2 D2 (DE) F2 | G4 A2 G2 | %97
w: mi- se-|re- re|no- *|bis.|Quo- ni- am tu|so- lus sa- * nctus,|Tu so- lus|
 D2 D4 C2 | D4 E4 |[M:3/4] DF F4 |[M:3/2] D2 E2 F4 B,2 C2 |[M:4/4]"^sempre"!f! ^D6 D2 | %102
w: Do- mi- nus.|Tu so-|lus a- lti-|ssi- mus Je- su Chri-|\-~ste, cum|
 (E2 G2 E2) ^D2 | E2 F2 E2 (AB) | E2 EC D2 D2 | D2 C2 !breath!D4- | (D2 C2) B,2 C2 | D8 |] z8 | %109
w: Sa- * * ncto|Spi- ri- tu in *|Glo- ri- a De- i|Pa- tris. A-|* * men, a-|men.||
 z8 | z8 || (D2 C2) B,3 B, | DD B,2 D2 C2 | D2 C2 B,2 B,D | D2 C2 z2 DD |[M:3/4] F3 E F2 | %116
w: ||Pa- * trem o-|mni- po- te- ntem fa-|cto- rem coe- li et|te- rrae vi- si-|bi- li- um|
 D3 C DB, | F2 G3 C | DC B,2 z2 |[M:2/4] z2 B,B, | F2 F2 |[M:3/4] G3 F E2 | %122
w: o- mni- um et|in- vi- si-|bi- li- um.|Et in|u- num|Do- mi- num|
[M:4/2] A4 A4 (G2 F2) E4 |[M:3/4] ^D3 D E2 | F2 G4 | GF E2 F2 ||[K:C] E2 z2 z2 | CB, C4 | %128
w: Je- su Chri- * ste|Fi- li- um|De- i|u- ni- ge- ni-|tum|Et ex Pa-|
 D2 F2 G2 | GG G^F G2 | C>D C2 z2 | z2 z2 C2 | C2 D4 | E>E D4 |[M:2/4] G4 | E2 D2 | E3 C | B,2 C2 | %138
w: tre na- tum|an- te o- mni- a|sae- cu- la.|lu-|men de|lu- mi- ne,|De-|um ve-|rum de|De- o|
 C4 |[M:3/4] B,2 !breath!C2 D2 | E2 (F2 C2) | E2 D2 GG | F3 E DC | E2 D2 D2 | C2 C2 C2 | %145
w: ve-|ro. Ge- ni-|tum non _|fa- ctum co- nsu~\--|\-~bsta- nti- a- lem|Pa- tri, per|quem o- mni-|
 C2 B,2 B,2 | C6 || z2 z2 A,2 | C2 E2 E2 | D>D CC CC | F2 F3 F | E2 E2 z E | c2 A2 F2 | %153
w: a fa- cta|sunt.|Qui|pro- pter nos|ho- mi- nes et pro- pter|no- stram sa-|lu- tem de-|scen \-~dit de|
[M:4/4] D2 E4 !breath!B,2 | C4 B,4 | E6 D2 |[M:3/4] E4 E2 |[M:2/4] D>B, A,2 |[M:3/4] A,2 C2 EC | %159
w: coe- lis. Et|in- car-|na- tus|est de|Spi- ri- tu|Sa- ncto ex Ma-|
 C4 B,2 | C>C B,2 z2 |[M:2/4] z2 B,2 | C2 C2 | C2 B,2 | C4 | z4 | C2 D2 | C4 | D4 | %169
w: ri- a|Vir- gi- ne|Et|ho- mo|fa- ctus|est.||Cru- ci-|fi-|xus|
[M:3/4] E>E E2 B,2 | C2 B,2 z E | C>B, A,2 C2 | C2 B,2 z2 |[M:6/4] C4 ^G,4 A,2 B,2 | B,4 B,4 A,4 || %175
w: e- ti- am pro|no- bis sub|Pon- ti- o Pi-|la- to|pa- ssus et se-|pu- ltus est.|
[K:D][M:2/4] z D- D2 | DE ED | DC D2 |[M:3/4] C2 D2 z E | F2 E3 G |[M:4/4] G2 F2 z2 FF | %181
w: Et *|re- su- rre- xit|te- rti- a|di- e se-|cu- ndam scri-|ptu- ras. Et a-|
 (F2 G2) A2 A2 | A2 A2 z E ^A2 | F2 (E2 D2) C2 | (B,2 C2) ^D2 z D |[M:3/4] ED =C2 C2 | D=C C2 D2 | %187
w: sce- * dit in|coe- lum se- det|ad de- * xtram|Pa- * tris. Et|i- te- rum ve-|ntu- rus est cum|
 E2 E2 EE | (G2 F2) G2 | A2 G2 E2 | E2 D2 D2 | D2 EB, =CD | G2 G2 z2 | B,=C D2 E2 | A,4 A,2 | %195
w: glo- ria ju- di-|ca- * re|vi- vos et|mo- rtu- os:|re- gni non e- rit|fi- nis.|Et in Spiri- tum|Sa- nctum|
 DD/D/ DD DE | D2 D2 z2 | z2 z2 ED | E2 ^D3 B, |[M:4/4] C2 D2 z2 z2 |[M:3/4] DE D2 DD | DC D2 z2 | %202
w: Do- mi- num et vi- vi- fi-|ca- ntem:|Fi- li-|o- que pro-|ce- dit.|Qui cum Pa- tre et|Fi- li- o|
 F3 F FE | F-^G A2 (FE) | D3 E FD | D2 C2 DE |[M:2/4] F2 E2 | D2 GF | D2 C2 | z2 A2 | D2 B2 | %211
w: si- mul a- do-|ra- * tur et *|co- nglo- ri- fi-|ca- tur qui lo-|cu- tus|est per Pro-|phe- tas.|Et|u- nam|
[M:3/4] A2 F3 D | D>D DC DD | E>D C3 B, | DD C2 z E | A>G ED DC | D2 C2 EE | FG A>F GA | %218
w: sa- nctam ca-|tho- li- cam et a- po-|sto- li- cam e-|ccle- si- am. Co~\--|\-~nfi- te- or u- num ba-|pti- sma in re-|mi- ssi- o- nem pe- cca-|
[M:2/4] (GF) E2 | z2 DD | D2 D2 | DD GF | D2 E2 | D3 C | C2 C2 | z2 F2 | F2 ED | G2 G2 | %228
w: to- * rum|Et e-|xspe- cto|re- su- rre- cti-|o- nem|mo- rtu-|or- um|Et|vi- tam ve-|ntu- ri|
[M:4/4] D3 D C2 z2 |[M:2/4] (G4- | G2 F2 | G4) | (B2 A2 | F4) |][M:3/4]!mp! F2 E2 D2 | E2 G2 E2 | %236
w: sae- cu- li|A-||men,|a- *|men|Sa- nctus, sa-|nctus, sa- nctus|
 A4 G2 | E2 G2 E2 | A2 G2 F2 | (G2 D2) E2 | A2 A2 F2 | (F2 D2) F2 | A4 ^G2 |!mf! A6 | A2 B2 G2 | %245
w: Do- mi-|nus De- us,|Do- mi- nus|De- * us|Sa- ba- oth,|De- * us|Sa- ba-|oth.|Ple- ni sunt|
 A2 G2 A2 | A2 A2 A2 | (G2 F2) E2 | D3 D D2 |[M:6/4] D4 D4 z2 z2 |[M:3/4] z2 z2!f! F2 | E2 F4 | %252
w: coe- li, sunt|coe- li et|te- * rra|glo- ri- a|tu- a.|Ho-|sa- nna|
 z2 z2 z E | F2 F2 z2 |[M:4/4] z2 FG A2 G2 |[M:5/4] (B2 A2) (B2 A2) G2 | F8 x2 |] %257
w: ho-|\-~sa- nna|in ex- cel- sis,|in _ ex- * cel-|sis.|
[M:4/4]!mf! z2 D4 C2 | (D4 E2) D2- | D2 C4 D2 | D4!mp! E4 | E4 F4 | G4 B4 | G2 A2 B2 z2 | A6 E2 | %265
w: Be- ne-|di- * ctus,|* be- ne-|di- ctus.|Be- ne-|di- ctus|qui ve- nit|in no-|
 D8 | D4 (E2 C2) | D4 z2 z!f! G |[M:3/4] F2 A2 F^A | B2 =A2 z D |[M:4/4] D2 A2 B2 A2 | %271
w: m'ne|Do- mi- *|ni. Ho~\-|\-~sa- nna in e-|xcel- sis, ho-|sa- nna in e-|
[M:6/4] (B4 G8) | F12 |][K:F][M:4/4]!ppp! D2 D2 D2 D2 | D2 D2 D2 D2 | D2 D2 D2 D2 | D2 D2 D2 D2 | %277
w: xcel- *|sis.|A- gnus De- i,|a- gnus De- i,|a- gnus, a- gnus,|a- gnus De- i,|
 D2 F2 D2 D2 | D2 A,2 (A,2 B,2) | A,4!pp! z4 | A,2 A,2 D2 D2 | D4!ppp! ^C4 | A,2 A,2 B,2 B,2 | %283
w: a- gnus, a- gnus,|a- gnus De- *|i.|Mi- se- re- re|no- bis.|A- gnus, a- gnus,|
 D2 A,2 D2 D2 | C2 (DE) F2 G2 | F2 D2 D4 | ^C4!pp! z4 | A,2 A,2 D2 D2 | D4!ppp! ^C4 | D2 D2 D2 D2 | %290
w: a- gnus De- i,|a- gnus, _ a- gnus,|a- gnus De-|i|Mi- se- re- re|no- bis.|A- gnus De- i|
 D2 D2 D2 D2 | D2 F2 D2 D2 | D2 D2 D2 D2 | D2 ^C2 A,2 B,2 ||[K:D] A,4 z4 |[M:2/4]!pp! D2 C2 | %296
w: do- na no- bis,|a- gnus De- i|do- na no- bis,|do- na no- *|\-bis.|Do- na|
 D2 G2 | G2 F2 | (DC) B,2 |[M:6/4] (D4 B,4 C4) |[M:2/4] D4 |] %301
w: no- bis|pa- cem,|no- * bis|pa- * *|cem.|
V:4
 x8 | x8 | x8 | x8 | x8 | x8 | x8 | x8 | x8 | x8 | x8 | x8 | x8 | x8 | x8 | x8 | x8 | x8 | x8 | %19
 x8 |][M:3/4] x6 |[M:4/4] x8 | x8 | x8 ||[M:2/4] x4 ||[M:4/4] x8 | x8 | x8 ||[M:3/4] x6 | x6 | x6 | %31
 x6 | x6 | x6 |[M:2/4] x4 | x4 |[M:3/4] x6 | x6 | x6 | x6 | x6 | x6 | x6 | x6 | x6 | x6 | x6 || %47
[K:F] x6 | x6 | x6 | x6 | x6 | x6 | x6 | x6 | x6 | x6 | x6 | x6 |[M:4/2] x16 |[M:3/4] x6 | x6 | %62
 x6 | x6 | x6 | x6 | x6 | x6 |[M:4/4] x8 |[M:2/4] x4 | x4 | x4 |[M:3/4] x6 | x6 |[M:4/4] x8 | %75
[M:2/4] x4 | x4 | x4 |[M:3/4] x6 | x6 |[M:4/4] x8 |[M:2/4] x4 | x4 | x4 | x4 | x4 |[M:3/4] x6 | %87
 x6 |[M:2/4] x4 |[M:4/4] x8 |[M:2/4] x4 | x4 | x4 | x4 ||[K:D][M:4/4] x8 | x8 | x8 | x8 | x8 | %99
[M:3/4] x6 |[M:3/2] x12 |[M:4/4] x8 | x8 | x8 | x8 | x8 | x8 | x8 |] x8 | x8 | x8 || x8 | x8 | x8 | %114
 x8 |[M:3/4] x6 | x6 | x6 | x6 |[M:2/4] x4 | x4 |[M:3/4] x6 |[M:4/2] x16 |[M:3/4] x6 | x6 | x6 || %126
[K:C] x6 | x6 | x6 | x6 | x6 | x6 | x6 | x6 |[M:2/4] x4 | x4 | x4 | x4 | x4 |[M:3/4] x6 | x6 | x6 | %142
 x6 | x6 | x6 | x6 | x6 || x6 | x6 | x6 | x6 | x6 | x6 |[M:4/4] x8 | x8 | x8 |[M:3/4] x6 | %157
[M:2/4] x4 |[M:3/4] x6 | x6 | x6 |[M:2/4] x4 | x4 | x4 | x4 | x4 | x4 | x4 | x4 |[M:3/4] x6 | x6 | %171
 x6 | x6 |[M:6/4] x12 | x12 ||[K:D][M:2/4] x4 | x4 | x4 |[M:3/4] x6 | x6 |[M:4/4] x8 | x8 | x8 | %183
 x8 | x8 |[M:3/4] x6 | x6 | x6 | x6 | x6 | x6 | x6 | x6 | x6 | x6 | x6 | x6 | x6 | x6 |[M:4/4] x8 | %200
[M:3/4] x6 | x6 | x6 | x6 | x6 | x6 |[M:2/4] x4 | x4 | x4 | x4 | x4 |[M:3/4] x6 | x6 | x6 | x6 | %215
 x6 | x6 | x6 |[M:2/4] x4 | x4 | x4 | x4 | x4 | x4 | x4 | x4 | x4 | x4 |[M:4/4] x8 |[M:2/4] x4 | %230
 x4 | x4 | x4 | x4 |][M:3/4] x6 | x6 | x6 | x6 | x6 | x6 | x6 | x6 | x6 | x6 | D2 G2 E2 | %245
 D2 G2 G2 | F2 G2 A2 | x6 | x6 |[M:6/4] x12 |[M:3/4] x4 D2 | C2 D4 | x6 | x6 |[M:4/4] x8 | %255
[M:5/4] x10 | x10 |][M:4/4] x8 | x8 | x8 | x8 | x8 | x8 | x8 | x8 | x8 | x8 | x8 |[M:3/4] x6 | x6 | %270
[M:4/4] x8 |[M:6/4] x12 | x12 |][K:F][M:4/4] x8 | x8 | x8 | x8 | x8 | x8 | x8 | x8 | x8 | x8 | x8 | %284
 x8 | x8 | x8 | x8 | x8 | x8 | x8 | x8 | x8 | x8 ||[K:D] x8 |[M:2/4] x4 | x4 | x4 | x4 | %299
[M:6/4] x12 |[M:2/4] x4 |] %301
V:5
 B3 B- BA G2 | F6 z2 | F2 ^G^A B4- | B2 ^A4 z2 | B2 A2 (Bc) d2 | B4 !breath!A4 | B4 G2 A2 | %7
w: Ky- rie * e- lei-|son|Ky- rie e- lei-|lei- son|Ky- ri- e _ e-|\-~lei- son.|Chri- ste e-|
 G2 B2 (A2 G2) | A2 d4- dc | B4 A4 | G4 F2 F2 | (F2 A4) !breath!^A2 | B3 B- BA G2 | F6 z2 | %14
w: le- i- son, _|Chri- ste _ e-|lei- son,|Chri- ste e-|lei- * son.|Ky- rie _ e- lei-|son,|
 F2 (^G^A) B2 B2 | B2 ^A4 z2 | G3 F E2 AB | A2 G2 (A2 d2-) | d6 c2 | B8 |][M:3/4]!f! F3 F A2 | %21
w: Ky- ri- * e e-|\-~lei son,|Ky- ri- e, Ky- ri-|e e- le- *|* i-|son.|Glo- ri- a,|
[M:4/4] A3 G/F/ E2 E2 | F^GAB c2 F(E | A2 F^G)!ff! A4 ||[M:2/4] z4 ||[M:4/4] z2!f! FA d4 | %26
w: in ex- * cel- sis|De- o, in ex- cel- sis De-|* * * o!||Et in te-|
 c2 d-e d2 cd | Bc!>(!dd A>!>)!A A2 ||[M:3/4]!>(! E3 E F!>)!G |!>(! A2 A2!>)!!p! z2 | %30
w: rra, te- * rra pax ho-|mi- ni- bus, ho- mi- ni- bus|bo- nae vo- llun-|\-~ta- tis.|
!mf! f2 g2 c2 | d2 z2 z2 | ff g>g c2 | d2 z2 z2 |[M:2/4] z4 | d4 |[M:3/4] d2 d2 (B2 | A2) (B2 c2) | %38
w: Lau- da- mus|te!|Be- ne- di- ci- mus|te!||Glo-|\-~ri- fi- ca-|* mus _|
 !breath!d6 | c3 d e2 | d3 e f2 | c4 e2 | d4 e2 | A4 B2 | A2 G2 B2 | B2 A2- G2 | !breath!F6 || %47
w: te!|Gra- ti- as|a- gi- mus|ti- bi|pro- pter|ma- gnam|glo- riam, glo-|riam tu- *|am.|
[K:F]!p! (A6 | d6-) | d4 ^c2 | (d2 e2 f2) |!mp! e4 ^c2 | d2 d2 e2 | d4 d2 |!mf! A6 | F3 F G2 | %56
w: Do-||* mi-|ne _ _|De- us|pa- ter om-|ni- po-|tens.|Do- mi- ne|
 A4 c2 | d4 c2 | B3 B A2 |[M:4/2]!mp! ^c6 c2 =c4 (B2 c2) |[M:3/4]!p! (c6 | d4 e2- | e2 d2) (de) | %63
w: Fi- li|u- ni-|ge- ni- te|Je- su Chri- ste _|Ag-||* * nus *|
 f2!mp! c4 | (^c2 B2) A2 | B2 A4 | A2 z2!<(! B2- | B4 A2!<)! |[M:4/4] B2!>(! (AG) F2!>)! z2 | %69
w: De- i|Fi- * i-|\-~us Pa-|tris pe-|* cca-|ta mu- * ndi|
[M:2/4]!pp! B2 A2 | G2 F2 | G4 |[M:3/4]!mp! ^F4 F2 | G2 B2 G2 |[M:4/4] GA(Bc) B2 z2 | %75
w: mi- se-|re- re|no-|bis Qui|to- llis pe-|cca- ta mu- * ndi|
[M:2/4]!pp! _e2 e2 | d2 B2 | (G2 A2) |[M:3/4]!mf! d4 B2- | (B4 A2) |[M:4/4] (B2 AG) A2!f! z2 | %81
w: mi- se-|re- re|no- *|bis, qui|_ _|to- * * llis|
[M:2/4] (3=B2 A2 B2 | c3 G | A2 d2 | B2 A2 | G4 |[M:3/4] A2 z2!<(! A2 | F3 G!<)! A2 | %88
w: su- sci- pe|de- pre-|ca- ti-|on- nem|no-|stram. Qui|se- des ad|
[M:2/4] c2 c2 |[M:4/4] B4 A4 |[M:2/4] d2 ^c2 | d2 B2 | A4 | A4 ||[K:D][M:4/4]!f! B3 G A2 A2 | %95
w: de- xtram|Pa- tris,|mi- se-|re- re|no-|bis.|Quo- ni- am tu|
 F2 A2 (Bc) d2 | d2 c2 d4 | c2 B4 A2 | A4 B2 A2 |[M:3/4] F A2 B c2 |[M:3/2] (B2 c2) d4 (G2 A2) | %101
w: so- lus sa- * nctus,|Tu so- lus|Do- mi- nus.|Tu so- lus|a- lti- ssi- mus|Je- * su Chri- *|
[M:4/4]"^sempre"!f! B6 =c2 | B4- =c2 B2 | B2 G2 A2 (F^G) | A2 AA A2 A2 | (GF) E2 (!breath!A2 G)F | %106
w: \-~ste, cum|Sa- * ncto|Spi- ri- tu in *|Glo- ri- a De- i|Pa- * tris. A- * men,|
 (E4 G4) | F8 |] A4 F2 D2 | E2 F2 (G2 E2) | A8 || A4 G3 F | BB d2 B2 A2 | B2 G2 F2 AB | %114
w: a- *|men.|Cre- do in|un- num De- *|um,|Pa- trem o-|mni- po- te- ntem fa-|cto- rem coe- li et|
 A2 A2 z2 BB |[M:3/4] d3 c B2 | B3 ^A BG | B2 B3 B | B^A B2 z2 |[M:2/4] z2 BB | d2 d2 | %121
w: te- rrae vi- si-|bi- li- um|o- mni- um et|in- vi- si-|bi- li- um.|Et in|u- num|
[M:3/4] d3 d c2 |[M:4/2] d4 d4 d4 c4 |[M:3/4] B3 B B2 | d2 d4 | BB =c2 ^d2 ||[K:C] e2 z2 z2 | %127
w: Do- mi- num|Je- su Chri- ste|Fi- li- um|De- i|u- ni- ge- ni-|tum|
 GF G2 A2 | B2 c2 cc | c3 c B2 | A>A G2 z2 | z6 | d2 B2 G2 | c>c G2 F2 |[M:2/4] c4- | c2 B2 | %136
w: Et ex Pa- tre|na- tum an- te|o- mni- a|sae- cu- la.||lu- men de|lu- mi ne, De-|\-~um|_ ve-|
 c3 A | ^G2 A2 | A4 |[M:3/4] !breath!G6 | G2 G2 cc | c2 B2 cc | c3 B AA | c2 B2 G2 | G2 D2 E2 | %145
w: rum de|De- o|ve-|ro.|Ge- ni- tum non|fa- ctum co- nsu~\--|\-~bsta- nti- a- lem|Pa- tri, per|quem o- mni-|
 A2 G2 F2 | E6 || z2 z2 A2 | c2 c2 c2 | B>B AA BB | c2 d3 d | c2 B2 z e | c2 A2 F2 | %153
w: a fa- cta|sunt.|Qui|pro- pter nos|ho- mi- nes et pro- pter|no- stram sa-|lu- tem de-|scen \-~dit de|
[M:4/4] D2 E4 !breath!^G2 | A4 G4 | c6 B2 |[M:3/4] c4 B2 |[M:2/4] A>A c2 |[M:3/4] A2 A2 BA | %159
w: coe- lis. Et|in- car-|na- tus|est de|Spi- ri- tu|Sa- ncto ex Ma-|
 G4 F2 | E>G G2 z2 |[M:2/4] z2 F2 | G2 A2 | D2 F2 | G4 | z4 | G2 ^G2 | A4 | ^G4 | %169
w: ri- a|Vir- gi- ne|Et|ho- mo|fa- ctus|est.||Cru- ci-|fi-|xus|
[M:3/4] A>B c2 d2 | A2 ^G2 z E | E>^G A2 E2 | A2 ^G2 z2 |[M:6/4] E4 E4 E2 A2 | A4 ^G4 A4 || %175
w: e- ti- am pro|no- bis sub|Pon- ti- o Pi-|la- to|pa- ssus et se-|pu- ltus est.|
[K:D][M:2/4] z A- A2 | dc cB | BA A2 |[M:3/4] G2 A2 z ^A | d2 B3 d |[M:4/4] c2 c2 z2 FF | %181
w: Et *|re- su- rre- xit|te- rti- a|di- e se-|cu- ndam scri-|ptu- ras. Et a-|
 (B2 c2) d2 d2 | c2 d2 z e- e2 | d2 c2 B2 A2 | (G2 A2) B2 z F |[M:3/4] GA G2 G2 | AA A2 B2 | %187
w: sce- * dit in|coe- lum se- *|det ad de- xtram|Pa- * tris. Et|i- te- rum ve-|ntu- rus est cum|
 B2 =c2 GA | (B2 A2) =c2 | e2 d2 =c2 | B2 A2 GA | B2 BB =cd | G2 G2 z2 | D2 G4 | G2 F2 D2 | %195
w: glo- ria ju- di-|ca- * re|vi- vos et|mo- rtuos cu- ius|re- gni non e- rit|fi- nis.|Spi- ri-|tum Sa- nctum|
 GA/A/ BA GA | F2 A2 z2 | d=c d2 G2 | FF F2 FE |[M:4/4] G2 F2 z2 Ad |[M:3/4] Bc d3 A | BA A2 z2 | %202
w: Do- mi- num et vi- vi- fi-|ca- ntem:|Qui ex Pa- tre|Fi- li- o- que pro-|ce- dit. Qui cum|Pa- * tre et|Fi- li- o|
 d3 c B^A | d2 c2 (Bc) | (AG) (FA) dB | A2 A2 Bc |[M:2/4] d2 d2 | (AG) A2 | A2 A2 | z2 A2 | d2 B2 | %211
w: si- mul a- do-|ra- tur et *|co- * * nglo- ri- fi-|ca- tur qui lo-|cu- tus|est _ per|phe- tas.|Et|u- nam|
[M:3/4] A2 F3 D | B>B AG AB | A>^G A3 B | ^G2 A2 z c | d>d cd B^A | A2 ^A2 cc | de f>A Ad | %218
w: sa- nctam ca-|tho- li- cam et a- po-|sto- li- cam e-|ccle- siam. Co~\--|\-~nfi- te- or u- num ba-|pti- sma in re-|mi- ssi- o- nem pe- cca-|
[M:2/4] d2 c2 | z2 B^A | A2 G2 | AG AA | d2 c2 | B3 B | B2 ^A2 | z2 F2 | B2 ^AB | d2 c2 | %228
w: to- rum|Et e-|xspe- cto|re- su- rre- cti-|o- nem|mo- rtu-|or- um|Et|vi- tam ve-|ntu- ri|
[M:4/4] B3 B A2 z2 |[M:2/4] (d2 c2 | e2) d2 | d4- | d2 c2 | A4 |][M:3/4]!mp! d2 c2 B2 | c2 d2 c2 | %236
w: sae- cu- li|A- *|men, a-|men,|_ a-|men.|Sa- nctus, sa-|nctus, sa- nctus|
 d6 | c2 d2 c2 | d2 A2 B2 | (e2 B2) c2 | d2 e2 d2 | (c2 A2) d2 | e4 d2 | c6 |!mf! z6 | f2 d2 g2 | %246
w: Do-|nus De- us,|Do- mi- nus|De- * us|Sa- ba- oth,|De- * us|Sa- ba-|oth.||Ple- ni sunt|
 f2 e2 d2 | d4 c2 | A3 A B2 |[M:6/4] B4 A4 z2!f! d2 |[M:3/4] B2 A4 | z2 z2 z d | B2 A3 c | %253
w: coe- li et|te- rra|glo- ri- a|tu- a. Ho-|sa- nna,|ho-|sa- nna, ho-|
 d2 c2 BA |[M:4/4] d4 c2 B2 |[M:5/4] (d2 c2 d2) (c2 B2) | A8 x2 |][M:4/4]!mf! z8 | B4 c2 d2 | %259
w: \-~sa- nna in ex-|cel- sis, in|ex- * * cel- *|sis.||Be- ne- di-|
 B2 A4 F2- | F2 ^G2 A4 |!mp! z2 e4 ^d2 | (e4 d4) | B6 z2 | e6 c2 | A4 (B2 A2) | B2 AG G2 e2 | %267
w: ctus, be- ne-|* di- ctus.|Be- ne-|di- *|ctus.|qui ve-|nit in _|no- mi- ne Do- mi-|
 A4 z2 z!f! c |[M:3/4] d2 c2 Bd | f2 d2 z ^c |[M:4/4] B2 d2 c2 d2 |[M:6/4] (d8 c4) | d12 |] %273
w: ni. Ho~\-|\-~sa- nna in e-|xcel- sis, ho-|sa- nna in e-|xcel- *|sis.|
[K:F][M:4/4] z8 |!mf! z8 | A6 G2 | A4 F2 G2 | (A2 B2) A2 d2 | F2 A2 d4 | ^c4!pp! z4 | F2 G2 A2 G2 | %281
w: ||A- gnus|De- i, qui|to- * llis pe-|\-~cca- ta mu-|ndi|Mi- se- re- re|
 E4 E4 | z2!mf! z2 F2 G2 | A4 A2 B2 | A2 B2 c2 ^c2 | d2 A4 F2 | A4!pp! z4 | F2 G2 A2 G2 | E4 E4 | %289
w: no- bis.|A- gnus|De- i qui|to- llis pe- *|cca- ta mu-|ndi|Mi- se- re- re|no- bis.|
 z8 |!mf! A6 G2 | A4 F2 G2 | (A2 B2) A2 d2 | F2 A2 (d2 e2) ||[K:D] c4 z4 |[M:2/4]!pp! A2 G2 | %296
w: |A- gnus|De- i, qui|to- * llis pe-|cca- ta mu- *|\-ndi|Do- na|
 F2 d2 | e2 d2 | (Bc) d2 |[M:6/4] (B4 G4 A4) |[M:2/4] A4 |] %301
w: no- bis|pa- cem,|no- * bis|pa- * *|cem.|
V:6
 x8 | x8 | x8 | x8 | x8 | x8 | x8 | x8 | x8 | x8 | x8 | x8 | x8 | x8 | x8 | x8 | x8 | x8 | x8 | %19
 x8 |][M:3/4] x6 |[M:4/4] x8 | x8 | x8 ||[M:2/4] x4 ||[M:4/4] x8 | x8 | x8 ||[M:3/4] x6 | x6 | x6 | %31
 x6 | x6 | x6 |[M:2/4] x4 | x4 |[M:3/4] x6 | x6 | x6 | x6 | x6 | x6 | x6 | x6 | x6 | x6 | x6 || %47
[K:F] x6 | x6 | x6 | x6 | x6 | x6 | x6 | x6 | x6 | x6 | x6 | x6 |[M:4/2] x16 |[M:3/4] x6 | x6 | %62
 x6 | x6 | x6 | x6 | x6 | x6 |[M:4/4] x8 |[M:2/4] x4 | x4 | x4 |[M:3/4] x6 | x6 |[M:4/4] x8 | %75
[M:2/4] x4 | x4 | x4 |[M:3/4] x6 | x6 |[M:4/4] x8 |[M:2/4] x4 | x4 | x4 | x4 | x4 |[M:3/4] x6 | %87
 x6 |[M:2/4] x4 |[M:4/4] x8 |[M:2/4] x4 | x4 | x4 | x4 ||[K:D][M:4/4] x8 | x8 | x8 | x8 | x8 | %99
[M:3/4] x6 |[M:3/2] x12 |[M:4/4] x8 | x8 | x8 | x8 | x8 | x8 | x8 |] x8 | x8 | x8 || x8 | x8 | x8 | %114
 x8 |[M:3/4] x6 | x6 | x6 | x6 |[M:2/4] x4 | x4 |[M:3/4] x6 |[M:4/2] x16 |[M:3/4] x6 | x6 | x6 || %126
[K:C] x6 | x6 | x6 | x6 | x6 | x6 | x6 | x6 |[M:2/4] x4 | x4 | x4 | x4 | x4 |[M:3/4] x6 | x6 | x6 | %142
 x6 | x6 | x6 | x6 | x6 || x6 | x6 | x6 | x6 | x6 | x6 |[M:4/4] x8 | x8 | x8 |[M:3/4] x6 | %157
[M:2/4] x4 |[M:3/4] x6 | x6 | x6 |[M:2/4] x4 | x4 | x4 | x4 | x4 | x4 | x4 | x4 |[M:3/4] x6 | x6 | %171
 x6 | x6 |[M:6/4] x12 | x12 ||[K:D][M:2/4] x4 | x4 | x4 |[M:3/4] x6 | x6 |[M:4/4] x8 | x8 | x8 | %183
 x8 | x8 |[M:3/4] x6 | x6 | x6 | x6 | x6 | x6 | x6 | x6 | x6 | x6 | x6 | x6 | x6 | x6 |[M:4/4] x8 | %200
[M:3/4] x6 | x6 | x6 | x6 | x6 | x6 |[M:2/4] x4 | x4 | x4 | x4 | x4 |[M:3/4] x6 | x6 | x6 | x6 | %215
 x6 | x6 | x6 |[M:2/4] x4 | x4 | x4 | x4 | x4 | x4 | x4 | x4 | x4 | x4 |[M:4/4] x8 |[M:2/4] x4 | %230
 x4 | x4 | x4 | x4 |][M:3/4] x6 | c2 B2 c2 | x6 | c2 B2 c2 | x6 | x6 | x6 | x6 | x6 | x6 | x6 | %245
 d2 d2 c2 | d2 c2 d2 | x6 | x6 |[M:6/4] x12 |[M:3/4] x6 | x6 | x6 | x6 |[M:4/4] x8 |[M:5/4] x10 | %256
 x10 |][M:4/4] x8 | x8 | x8 | x8 | x8 | x8 | x8 | x8 | x8 | x8 | x8 |[M:3/4] x6 | x6 |[M:4/4] x8 | %271
[M:6/4] x12 | x12 |][K:F][M:4/4] x8 | x8 | x8 | x8 | x8 | x8 | x8 | x8 | x8 | x8 | x8 | x8 | x8 | %286
 x8 | x8 | x8 | x8 | x8 | x8 | x8 | x8 ||[K:D] x8 |[M:2/4] x4 | x4 | x4 | x4 |[M:6/4] x12 | %300
[M:2/4] x4 |] %301
V:7
 z8 | z8 | D,2 E,2 F,2 (B,,C,) | D,2 C,4 z2 | F,2 A,2 B,2 C2 | E,2 (F,G,) !breath!A,4 | %6
w: ||||Ky- ri- e e-|\-~le- i- * son.|
 (B,A,)G,F, E,2 D,C, | B,,2 C,2 (D,2 E,2) | F,2 F,F, G,2 A,2 | (B,2 E,2) A,2 D,2 | %10
w: Chri- * ste e- lei- son, e-|lei- * son, _|Chri- ste e- lei- son,|e- * lei- son,|
 (G,2 C,2) F,2 F,,2 | (B,,2 G,2) F,4 | z8 | z4 z2 F,E, | D,2 E,2 (F,2 (B,,C,)) | (D,2 C,4 z2 | %16
w: Chri- * ste e-|lei- * son,||Ky- ri-|e e- lei- * *|\-~lei- son,|
 G,,4 A,,2 B,,C, | D,2 E,2 F,2 F,2- | F,2 E,2- E,F,) G,2 | [B,,F,]8 |][M:3/4]!f! D,3 D, A,,2 | %21
w: Ky- ri- e e-|le- i- son, e-|le- le- i- * i-|son.|Glo- ri- a|
[M:4/4] D,E,F,G, A,4 | (B,,2 C,2)"^Cresc  e  rall" D,F,B,,C, | (D,2 E,2)!ff! A,,4 ||[M:2/4] z4 || %25
w: in ex- cel- sis De-|o _ in ex- cel- sis|De- * o!||
[M:4/4] z4!f! z2 F,!f!G, | A,4 A,4 | G,2!>(! F,2 C,>!>)!C, D,2 ||[M:3/4]!>(! G,,3 G,, B,,!>)!B,, | %29
w: Et in|te- rra|pax ho- mi- ni- bus|bo- nae vo- llun-|
!>(! A,,2!>)! A,,2!p!!mf! z2 | D,2 E,2 G,2 | F,2 z2 z2 | D,D, E,>E, G,2 | F,2 z2 z2 |[M:2/4] z4 | %35
w: \-~ta- tis.|Lau- da- mus|te!|Be- ne- di- ci- mus|te!||
 F,4 |[M:3/4] G,4 E,2 | A,,4 A,2 | !breath!A,6 | F,4 F,2 | B,,3 C, D,2 | (E,2 C,2) F,2 | B,,4 C,2 | %43
w: Glo-|\-~ri- fi-|ca- mus|te!|Gra- tias|a- gi- mus|ti- * bi|pro- pter|
 (D,2 C,2) B,,2 | F,,2 G,,2 E,,2 | A,,6 | !breath!D,6 ||[K:F]!p! (D,2 E,2 F,2 | G,2 A,2 B,2 | %49
w: ma- * gnam|glo- ri- am|tu-|am.|Do- * *||
 A,4) G,2 | (F,2 A,2 D2) |!mp! A,2 (G,F,) E,2 | (D,2 B,,2) A,,2 | (G,,2 A,,2) B,,2 |!p! A,,6 | %55
w: * mi-|ne _ _|De- us _ pa-|\-~ter _ om-|ni- * po-|tens.|
 (D,2 C,2 B,,2 | F,,2 G,,2 A,,2 | B,,4) A,,2 | (D,2 E,2 F,2) |[M:4/2]!mp! B,6 B,2 A,4 (G,2 C,2) | %60
w: Do- * *||* mi-|ne _ _|Je- su Chri- ste _|
[M:3/4]!mf! F,3 G, A,2 | (B,2 A,2) G,2 | C4 B,2 | (A,2 G,2)!mp! F,2 | (A,2 G,2) F,2 | E,2 A,,4 | %66
w: Do- mi- ne|De- * us,|A- gnus|De- * i|Fi- * li-|\-~us Pa-|
 D,2 z2!<(! G,2- | G,4 F,2!<)! |[M:4/4] E,2!>(! A,,2 B,,2!>)! z2 |[M:2/4]!pp! G,,2 D,2 | %70
w: tris pe-|* cca-|ta mu- ndi|mi- se-|
 _E,2 B,,2 | C,4 |[M:3/4] D,4!mp! C,2 |!<(! B,,2 G,,2 B,,2!<)! |[M:4/4] A,,A,,!>(! D,2!>)! G,2 z2 | %75
w: re- re|no-|bis Qui|to- llis pe-|cca- ta mu- ndi|
[M:2/4]!pp! C2 C2 | G,2 F,2 | _E,4 |[M:3/4]!mf! D,4 G,2- | (G,4 F,2) | %80
w: mi- se-|re- re|no-|bis, qui|_ _|
[M:4/4] (E,2 A,,2) D,2!f! z2 |[M:2/4] (3G,2 F,2 F,2 | E,3 B,, | A,,2 B,,2 | ^C,2 D,2 | (E,2 A,,2) | %86
w: to- * llis|su- sci- pe|de- pre-|ca- ti-|on- nem|no- *|
[M:3/4] D,2 z2!<(! C,2 | B,,3 B,,!<)! A,,2 |[M:2/4]!<(! E,2 F,2 |[M:4/4] (B,2 G,2)!<)! D,4 | %90
w: stram. Qui|se- des ad|de- xtram|Pa- * tris,|
[M:2/4]"^rall  e  dim" G,2 A,2 | B,2 E,2 | (A,2 A,,2) | !fermata!D,4 || %94
w: mi- se-|re- re|no- *|bis.|
[K:D][M:4/4]!f! G,3 E, D,2 C,2 | B,,2 F,2 G,2 D,2 | G,2 E,2 (F,2 B,2) | A,2 B,2 (E,2 A,2) | %98
w: Quo- ni- am tu|so- lus sa- nctus,|Tu so- lus _|Do- mi- nus _|
 D,4 D,2 C,2 |[M:3/4] B,,2 D,2 F,2 |[M:3/2] G,4 D,2 D,2 E,4 |[M:4/4]"^sempre"!f! B,,6 A,,2 | %102
w: Tu so- lus|a- lti- ssi-|mus Je- su Chri-|\-~ste, cum|
 (G,,2 E,,2 F,,2) B,,2 | E,2 D,2 C,2 B,,2 | A,,2 G,,G,, F,,2 F,,2 | G,,2 A,,2 !breath!D,2 B,,2 | %106
w: Sa- * * ncto|Spi- ri- tu in|Glo- ri- a De- i|Pa- tris. A- men,|
 A,,8 | [D,,A,,]8 |] A,4 F,2 D,2 | E,2 F,2 (G,2 E,2) | A,8 || D,4 E,3 B,, | G,F, E,2 A,,2 G,,2 | %113
w: a-|men.||||Pa- trem o-|mni- po- te- ntem fa-|
 F,,2 A,,2 B,,B,, E,,2 | A,,2 A,,2 z2 B,,A, |[M:3/4] G,3 A, B,2 | E,3 F, G,C, | D,2 E,3 G, | %118
w: cto- rem coe- li et|te- rrae vi- si-|bi- li- um|o- mni- um et|in- vi- si-|
 F,F, B,2 z2 |[M:2/4] z2 B,,B,, | B,2 A,2 |[M:3/4] G,3 G, A,2 |[M:4/2] F,4 F,,4 G,,4 A,,4 | %123
w: bi- li- um.|Et in|u- num|Do- mi- num|Je- su Chri- ste|
[M:3/4] B,,3 B,, E,2 | D,2 G,4 | G,,G,, A,,2 B,,2 ||[K:C] E,2 z2 z2 | C,D, E,2 F,2- | F,2 F,2 E,2 | %129
w: Fi- li- um|De- i|u- ni- ge- ni-|tum|Et ex Pa- tre|_ na- tum|
 D,D, D,D, G,2 | F,>F, C,2 z2 | C,2 D,2 E,2 | F,2 G,2 z2 | z6 |[M:2/4] E,4 | F,2 G,2 | A,3 D, | %137
w: an- te o- mni- a|sae- cu- la.|De- um de|De~\- o,||De-|um ve-|rum de|
 E,2 A,,2 | D,4 |[M:3/4] G,,2 !breath!A,,2 B,,2 | C,2 (D,2 E,2) | F,2 G,2 E,E, | F,3 G, A,D, | %143
w: De- o|ve-|ro. Ge- ni-|tum non _|fa- ctum co- nsu~\-|\-~bsta- nti- a- lem|
 G,2 G,2 B,,B,, | C,3 B,, A,,2 | F,,2 G,,4 | C,6 || z2 z2 A,2 | A,2 A,2 A,2 | A,>^G, A,A, =G,G, | %150
w: Pa- tri, per quem|o- mni- a|fa- cta|sunt.|Qui|pro- pter nos|ho- mi- nes et pro- pter|
 F,2 D,3 D, | E,2 E,2 z E, | C2 A,2 F,2 |[M:4/4] D,2 E,4 z2 | z6 G,2 | F,2 F,2 F,,2 F,,2 | %156
w: no- stram sa-|lu- tem de-|scen \-~dit de|coe- lis.|Et|in- car- na- tus|
[M:3/4] C,4 C,2 |[M:2/4] D,>D, E,2 |[M:3/4] F,2 A,2 G,F, | E,4 D,2 | C,>E, G,,2 z2 | %161
w: est de|Spi- ri- tu|Sa- ncto ex Ma-|ri- a|Vir- gi- ne|
[M:2/4] z2 D,,2 | E,,2 F,,2 | G,,2 G,,2 |"^(   )" C,,4 | z4 | C,2 B,,2 | A,,4 | E,4 | %169
w: Et|ho- mo|fa- ctus|est.||Cru- ci-|fi-|xus|
[M:3/4] A,>G, F,2 E,2 | D,2 E,2 z E,, | A,,>B,, C,2 A,,2 | E,2 E,2 z2 |[M:6/4] A,,4 B,,4 C,2 D,2 | %174
w: e- ti- am pro|no- bis sub|Pon- ti- o Pi-|la- to|pa- ssus et se-|
 E,4 E,4 A,4 ||[K:D][M:2/4] z D, E,F, | G,2 F,2 | E,2 D,2 |[M:3/4] A,,2 D,2 z C, | B,,2 G,,3 E,, | %180
w: pu- ltus est.|Et re- su-|re- xit|te- rtia|di- e se-|cu- ndam scri-|
[M:4/4] F,,2 F,,2 z2 F,F, | (B,,2 A,,2) D,2 F,2 | E,2 D,2 z E, F,2 | (B,2 F,2) G,2 D,2 | %184
w: ptu- ras. Et a-|sce- * dit in|coe- lum se- det|ad _ de- xtram|
 E,4 B,,2 z A,, |[M:3/4] G,,B,, =C,2 A,,2 | D,E, F,2 G,2 | E,2 A,,2 =C,C, | D,4 E,2 | F,2 G,2 A,2 | %190
w: Pa- tris. Et|i- te- rum ve-|ntu- rus est cum|glo- ria ju- di-|ca- re|vi- vos et|
 E,D, =C,4 | B,,2 E,B,, =C,D, | G,2 G,2 z2 | G,,A,, B,,2 =C,2 | D,4 =C,2 | B,,D,/D,/ G,F, G,=C, | %196
w: mo- rtu- os:|re- gni non e- rit|fi- nis.|Et in Spiri- tum|Sa- nctum|Do- mi- num et vi- vi- fi-|
 D,2 F,2 z2 | G,,A,, B,,2 A,,2 | =C,C, B,,2 B,,E, |[M:4/4] A,,2 D,2 z2 F,F, |[M:3/4] G,2 F,3 F, | %201
w: ca- ntem:|Qui ex Pa- tre|Fi- li- o- que pro-|ce- dit. Qui cum|Pa- tre et|
 E,A,, D,2 z2 | B,,3 ^A,, B,,C, | D,-E, A,2 G,2 | (F,E,) (D,C,) B,,G,, | A,,2 A,,2 A,A, | %206
w: Fi- li- o|si- mul a- do-|ra- * tur et|co- * * nglo- ri- fi-|ca- tur qui lo-|
[M:2/4] D2 B,2 | (F,G,) E,D, | A,2 A,,2 | z2 A,2 | D,2 B,,2 |[M:3/4] A,,2 F,,3 D, | %212
w: cu- tus|est _ per Pro-|phe- tas.|Et|u- nam|sa- nctam ca-|
 D,>D, D,D, D,B,, | C,B,, A,,2 F,,2 | E,,2 A,,2 z G, | F,>G, A,B, G,G, | (D,E,) F,2 ^A,A, | %217
w: tho- li- cam et a- po-|sto- li- cam e-|ccle- siam. Co~\--|\-~nfi- te- or u- num ba-|pti- * sma in re-|
 B,A, D>D, E,F, |[M:2/4] G,2 A,2 | z2 G,G, | D,2 E,2 | F,G, E,D, | G,2 A,2 | B,3 G, | F,2 F,2 | %225
w: mi- ssi- o- nem pe- cca-|to- rum|Et e-|xspe- cto|re- su- rre- cti-|o- nem|mo- rtu-|or- um|
 z2 F,2 | B,,2 C,D, | E,2 E,2 |[M:4/4] F,3 G, A,2 z2 |[M:2/4] (E,4 | A,,2 B,,2) | (B,4 | G,4 | %233
w: Et|vi- tam ve-|ntu- ri|sae- cu- li|A-|* men,|a-||
 D,4) |][M:3/4]!mp! z6 | A,4 G,2 | F,4 G,2 | A,4 G,2 | (F,2 E,2) D,2 | C,2 A,,2 G,,2 | %240
w: men.||Sa- nctus,|sa- nctus,|sa- nctus,|sa- * nctus|Do- mi- nus|
 (F,,2 A,,2) D,2 | (F,6 | E,4) E,,2 | A,,6 |!mf! z6 | A,2 B,2 G,2 | A,2 G,2 A,2 | G,4 A,2 | %248
w: De- * us|Sa-|* ba-|oth.||Ple- ni sunt|coe- li et|te- rra|
 F,3 F, G,2 |[M:6/4] (B,2 G,2) D,4 z2 z2 |[M:3/4] z2 z2!f! A,2 | A,2 A,3 D, | B,,2 A,,3 A, | %253
w: glo- ri- a|tu- * a.||||
 G,2 F,2 z2 |[M:4/4] z2 D,E, F,2 G,2- |[M:5/4] G,2 A,4 A,,4 | [D,,D,]8 x2 |][M:4/4] z8 | %258
w: \-~sa- nna|in ex- cel- sis,|_ ex- cel-|sis.||
!mf! z2 (G,4 F,2 | E,2 A,2) (D,2 C,2) | (B,,2 E,2) A,4 |!mp! z8 | z2 =C2 G,2 F,2 | %263
w: Be- *|* * ne- *|di- * ctus||qui ve- nit,|
 (E,2 F,2) G,2 z2 | (A,6 G,2) | F,4 G,2 F,2 | E,4 A,,2 G,,2 | F,,4 z2 z!f! A,, | %268
w: ve- * nit|in _|no- mi- ne|Do- mi- *|ni. Ho~\-|
[M:3/4] D,2 A,2 B,F, | B,2 F,2 z F,, |[M:4/4] G,,2 F,,2 E,,2 F,,2 |[M:6/4] (G,,4 E,,4 A,,4) | %272
w: \-~sa- nna in e-|xcel- sis, ho-|sa- nna in e-|xcel- * *|
 [D,,A,,]12 |][K:F][M:4/4]!ppp! D,8- | D,4 G,,4 | D,6 B,,2 | D,6 G,,2 | (D,4 B,,4) | %278
w: sis.|A-|* gnus,|a- gnus,|a- gnus|De- i,|
 A,,2 G,2 F,2 G,2 | A,2 G,2 F,2!pp! E,2 | D,2 D,2 B,,2 B,,2 | A,,4!ppp! A,,4 | D,4 G,4 | %283
w: a- gnus, a- gnus,|a- gnus De- i|Mi- se- re- re|no- bis.|A- gnus,|
 (D,4 C,2) B,,2 | A,,2 G,2 F,2 E,2 | (D,4 B,,2) B,2 | (A,2 G,2) (F,2!pp! E,2) | D,2 D,2 B,,2 B,,2 | %288
w: a- * gnus,|a- gnus, a- gnus,|a- * gnus|De- * i _|Mi- se- re- re|
 A,,4!ppp! A,,4 | D,4 G,,4 | D,4 B,,4 | D,6 G,,2 | D,4 B,,4 | A,,2 G,2 F,2 G,2 || %294
w: no- bis.|A- gnus|De- i,|a- gnus|De- i|do- na no- bis,|
[K:D] A,2 A,,2"^rit" B,,2 C,2 |[M:2/4]!pp! D,2 E,2 | F,2 G,2 | A,2 B,2 | E,2 F,2 | %299
w: do- na no- bis,|Do- na|no- bis|pa- cem,|no- bis|
[M:6/4] (G,4 E,4 A,4) |[M:2/4] !fermata!D,4 |] %301
w: pa- * *|cem.|
V:8
 x8 | x8 | D,2 C,2 (B,,A,,) G,,2 | F,,2 F,,4 x2 | B,,2 F,2 G,2 D,2 | x8 | x8 | x8 | x8 | x8 | x8 | %11
w: |||||||||||
 (B,,2 A,,2 D,E,) F,2 | x8 | x6 F,E, | D,2 C,2 B,,A,, G,,2 | F,,2 F,,4 x2 | x8 | D,2 E,2 F,2 F,,2 | %18
w: |||||||
 G,,4 A,,4 | x8 |][M:3/4] x6 |[M:4/4] D,,E,,F,,G,, A,,2 B,,C, | x8 | x8 ||[M:2/4] x4 || %25
w: |||||||
[M:4/4] x4 z4 | z A,,B,,C, D,2 E,F, | x8 ||[M:3/4] x6 | x6 | x6 | F,2 G,2 E,2 | D,2 z2 z2 | %33
w: ||||||||
 F,F, G,>G, A,2 |[M:2/4] B,3 z | x4 |[M:3/4] x6 | A,,4 A,,2 | D,6 | x6 | x6 | x6 | x6 | x6 | x6 | %45
w: ||||||||||||
 x6 | D,,6 ||[K:F] x6 | x6 | x6 | x6 | x6 | x6 | x6 | x6 | x6 | x6 | x6 | x6 |[M:4/2] x16 | %60
w: |||||||||||||||
[M:3/4] x6 | x6 | x6 | x6 | x6 | x6 | x6 | x6 |[M:4/4] x8 |[M:2/4] x4 | x4 | x4 |[M:3/4] x6 | x6 | %74
w: ||||||||||||||
[M:4/4] x8 |[M:2/4] x4 | x4 | x4 |[M:3/4] x6 | x6 |[M:4/4] x8 |[M:2/4] x4 | x4 | x4 | x4 | x4 | %86
w: ||||||||||||
[M:3/4] x6 | x6 |[M:2/4] x4 |[M:4/4] x8 |[M:2/4] x4 | x4 | x4 | x4 ||[K:D][M:4/4] x8 | x8 | x8 | %97
w: |||||||||||
 x8 | x8 |[M:3/4] x6 |[M:3/2] x12 |[M:4/4] x8 | x8 | x8 | x8 | x8 | x8 | x8 |] x8 | x8 | x8 || x8 | %112
w: |||||||||||||||
 x8 | x8 | x8 |[M:3/4] x6 | x6 | x6 | x6 |[M:2/4] x4 | x4 |[M:3/4] x6 |[M:4/2] x16 |[M:3/4] x6 | %124
w: ||||||||||||
 x6 | x6 ||[K:C] x6 | x6 | x6 | x6 | x6 | x6 | x6 | x6 |[M:2/4] x4 | x4 | x4 | x4 | x4 | %139
w: |||||||||||||||
[M:3/4] x6 | x6 | x6 | x6 | x6 | x6 | x6 | x6 || x6 | x6 | x6 | x6 | x6 | x6 |[M:4/4] x8 | x8 | %155
w: ||||||||||||||||
 x8 |[M:3/4] x6 |[M:2/4] x4 |[M:3/4] x6 | x6 | x6 |[M:2/4] x4 | x4 | x4 | x4 | x4 | x4 | x4 | x4 | %169
w: ||||||||||||||
[M:3/4] x6 | x6 | x6 | x6 |[M:6/4] x12 | x12 ||[K:D][M:2/4] x4 | x4 | x4 |[M:3/4] x6 | x6 | %180
w: |||||||||||
[M:4/4] x8 | x8 | x8 | x8 | x8 |[M:3/4] x6 | x6 | x6 | x6 | x6 | x6 | x6 | x6 | x6 | x6 | x6 | x6 | %197
w: |||||||||||||||||
 x6 | x6 |[M:4/4] x8 |[M:3/4] x6 | x6 | x6 | x6 | x6 | x6 |[M:2/4] x4 | x4 | x4 | x4 | x4 | %211
w: ||||||||||||||
[M:3/4] x6 | x6 | x6 | x6 | x6 | x6 | x6 |[M:2/4] x4 | x4 | x4 | x4 | x4 | x4 | x4 | x4 | x4 | x4 | %228
w: |||||||||||||||||
[M:4/4] x8 |[M:2/4] E,4 | A,,2 B,,2 | E,,4 | A,,4 | D,4 |][M:3/4] x6 | x6 | x6 | x6 | x6 | x6 | %240
w: ||||||||||||
 x6 | x6 | x6 | x6 | x6 | D,2 G,2 E,2 | D,2 E,2 F,2 | x6 | x6 |[M:6/4] x12 |[M:3/4] x4 F,,2 | %251
w: ||||||||||Ho-|
 A,,2 D,3 D, | B,,2 A,,3 A,, | G,,2 F,,2 x2 |[M:4/4] x8 |[M:5/4] x10 | x10 |][M:4/4] x8 | x8 | x8 | %260
w: sa- nna, ho-|sa- nna, ho~\-||||||||
 x8 | x8 | x8 | x8 | x8 | x8 | x8 | x8 |[M:3/4] x6 | x6 |[M:4/4] x8 |[M:6/4] x12 | x12 |] %273
w: |||||||||||||
[K:F][M:4/4] x8 | x8 | x8 | x8 | x8 | x8 | x8 | x8 | x8 | x8 | x8 | x8 | x8 | x8 | x8 | x8 | x8 | %290
w: |||||||||||||||||
 x8 | x8 | x8 | x8 ||[K:D] x8 |[M:2/4] x4 | x4 | x4 | x4 |[M:6/4] x12 |[M:2/4] x4 |] %301
w: |||||||||||

